X: 135
T: the Spider and the FLy
T: Round for three voices
C: W. G. McNaught
Q: "Allegretto."
%R: air, march
B: "The Everyday Song Book", 1927
F: http://www.library.pitt.edu/happybirthday/pdf/The_Everyday_Song_Book.pdf
Z: 2017 John Chambers <jc:trillian.mit.edu>
M: 4/4
L: 1/8
K: D
% - - - - - - - - - - - - - - - - - - - - - - - - - - - - -
"1"F G | A2 A2 A2 A2 | d2 A2 A2 G2 | F2 F2 E2 E2 | D4 z2 ||
w: "Will you come in-to my par-lor?" said the spi-der to the fly,
%
"2"A A | d2 c B A G F E | (D2 d2) c2 B2 | A2 d2 d2 c2 | d4 z2 ||
w: "Tis the pret-ti-est, snug-gest lit-tle par-*lor that ev-er you did spy."
%
"3"D E | "^>"F4 A2 D E | "^>"F4 A2 C2 | (DE) (FG) A2 [A2A,2] | D4 z2 |]
w: "Not to-day, thanks Mis-ter Long-shanks, I've oth-*er* fish to fry."
% - - - - - - - - - - - - - - - - - - - - - - - - - - - - -
